src/icons/gcp-repos.svg

<?xml version="1.0" encoding="UTF-8"?>
<svg xmlns="http://www.w3.org/2000/svg" xmlns:xlink="http://www.w3.org/1999/xlink" width="35.609001" height="32" viewBox="0 0 35.609001 32" version="1.1">
<defs>
<filter id="alpha" filterUnits="objectBoundingBox" x="0%" y="0%" width="100%" height="100%">
  <feColorMatrix type="matrix" in="SourceGraphic" values="0 0 0 0 1 0 0 0 0 1 0 0 0 0 1 0 0 0 1 0"/>
</filter>
<image id="image14" width="36" height="32" xlink:href="data:image/png;base64,iVBORw0KGgoAAAANSUhEUgAAACQAAAAgCAYAAAB6kdqOAAAABmJLR0QA/wD/AP+gvaeTAAAATklEQVRYhe3OIQ6AMBQE0QWK4/5XrSKpqZ9vPkHM05vsJJJ6HcXN3R2yvaMwupI83SXbPD86KjOIGEQMIgYRg4hBxCBiEDGIGEQMIr8LWva1Aj8xijCUAAAAAElFTkSuQmCC"/>
<mask id="mask0">
  <g filter="url(#alpha)">
<use xlink:href="#image14"/>
  </g>
</mask>
<clipPath id="clip2">
  <rect x="0" y="0" width="36" height="32"/>
</clipPath>
<g id="surface13" clip-path="url(#clip2)">
<path style=" stroke:none;fill-rule:nonzero;fill:rgb(0%,0%,0%);fill-opacity:1;" d="M 22.160156 8.96875 L 14.742188 10.152344 L 13.285156 15.023438 L 11.039062 13.074219 L 13.394531 22.988281 L 22.394531 31.992188 L 25.117188 31.992188 C 26.265625 31.953125 27.308594 31.3125 27.863281 30.304688 L 33.546875 20.421875 Z M 22.160156 8.96875 "/>
</g>
<clipPath id="clip1">
  <rect x="0" y="0" width="36" height="32"/>
</clipPath>
<g id="surface16" clip-path="url(#clip1)">
<use xlink:href="#surface13" mask="url(#mask0)"/>
</g>
</defs>
<g id="surface1">
<path style=" stroke:none;fill-rule:nonzero;fill:rgb(25.882354%,52.156866%,95.686275%);fill-opacity:1;" d="M 35.179688 14.359375 L 27.867188 1.636719 C 27.304688 0.644531 26.261719 0.0195312 25.121094 0 L 10.488281 0 C 9.347656 0.0195312 8.304688 0.640625 7.742188 1.636719 L 0.425781 14.328125 C -0.140625 15.3125 -0.140625 16.523438 0.425781 17.507812 L 7.742188 30.304688 C 8.292969 31.3125 9.335938 31.957031 10.484375 32 L 25.117188 32 C 26.265625 31.960938 27.308594 31.320312 27.863281 30.3125 L 35.179688 17.589844 C 35.753906 16.589844 35.753906 15.363281 35.179688 14.359375 M 35.179688 14.359375 "/>
<use xlink:href="#surface16"/>
<path style=" stroke:none;fill-rule:nonzero;fill:rgb(100%,100%,100%);fill-opacity:1;" d="M 19.960938 16.019531 C 19.984375 16.824219 19.566406 17.578125 18.875 17.984375 C 18.183594 18.394531 17.324219 18.390625 16.628906 17.980469 C 15.9375 17.570312 15.523438 16.820312 15.550781 16.015625 C 15.585938 14.824219 16.566406 13.875 17.757812 13.878906 C 18.949219 13.878906 19.925781 14.828125 19.960938 16.019531 M 25.921875 15.441406 L 24.269531 12.570312 L 20.902344 12.570312 L 22.875 15.996094 L 22.34375 16.921875 L 20.335938 20.414062 L 19.714844 21.492188 L 18.636719 23.355469 L 21.375 23.355469 C 21.769531 23.355469 22.132812 23.140625 22.332031 22.800781 L 25.921875 16.550781 C 26.117188 16.210938 26.117188 15.792969 25.921875 15.453125 M 15.257812 20.417969 L 12.71875 15.996094 L 11.035156 13.078125 L 9.671875 15.441406 C 9.476562 15.78125 9.476562 16.199219 9.671875 16.539062 L 13.257812 22.804688 C 13.457031 23.144531 13.820312 23.359375 14.214844 23.359375 L 17.503906 23.359375 L 19.195312 20.417969 Z M 23.710938 11.59375 L 22.339844 9.207031 C 22.144531 8.863281 21.777344 8.652344 21.382812 8.648438 L 14.210938 8.648438 C 13.816406 8.652344 13.449219 8.863281 13.253906 9.207031 L 11.59375 12.101562 L 13.28125 15.027344 L 15.257812 11.59375 Z M 23.710938 11.59375 "/>
</g>
</svg>

<svg xmlns:xlink="http://www.w3.org/1999/xlink" role="img" viewBox="0 0 35.609 32" xmlns="http://www.w3.org/2000/svg"><defs><clipPath id="b"><path d="M0 0h36v32H0z"/></clipPath><filter filterUnits="objectBoundingBox" height="100%" id="a" width="100%" x="0%" y="0%"><feColorMatrix in="SourceGraphic" values="0 0 0 0 1 0 0 0 0 1 0 0 0 0 1 0 0 0 1 0"/></filter><mask id="d"><g filter="url(#a)"><path d="M0 0h35.609v32H0z" style="fill:rgb(0%,0%,0%);fill-opacity:0.07;stroke:none"/></g></mask><g clip-path="url(#b)" id="c"><path d="m22.16 8.969-7.418 1.183-1.457 4.871-2.246-1.949 2.356 9.914 9 9.004h2.722a3.26 3.26 0 0 0 2.746-1.687l5.684-9.883Zm0 0" style="stroke:none;fill-rule:nonzero;fill:rgb(0%,0%,0%);fill-opacity:1"/></g></defs><path d="M35.18 14.36 27.867 1.636A3.223 3.223 0 0 0 25.121 0H10.488c-1.14.02-2.183.64-2.746 1.637L.426 14.328a3.187 3.187 0 0 0 0 3.18l7.316 12.797A3.265 3.265 0 0 0 10.484 32h14.633a3.26 3.26 0 0 0 2.746-1.687L35.18 17.59c.574-1 .574-2.227 0-3.23m0 0" style="stroke:none;fill-rule:nonzero;fill:rgb(25.882354%,52.156866%,95.686275%);fill-opacity:1"/><use xlink:href="#c" mask="url(#d)"/><path d="M19.96 16.02a2.206 2.206 0 1 1-4.41-.005 2.206 2.206 0 0 1 4.41.005m5.962-.579-1.652-2.87h-3.368l1.973 3.425-.531.926-2.008 3.492-.621 1.078-1.078 1.863h2.738c.395 0 .758-.214.957-.554l3.59-6.25c.195-.34.195-.758 0-1.098m-10.664 4.965-2.54-4.422-1.683-2.918-1.363 2.363c-.195.34-.195.758 0 1.098l3.586 6.266c.199.34.562.554.957.554h3.289l1.691-2.941Zm8.453-8.824L22.34 9.207a1.113 1.113 0 0 0-.957-.559H14.21a1.118 1.118 0 0 0-.957.559l-1.66 2.895 1.687 2.925 1.977-3.433Zm0 0" style="stroke:none;fill-rule:nonzero;fill:rgb(100%,100%,100%);fill-opacity:1"/></svg>
